icons/squirrel-16.svg

<svg width="16" height="16" viewBox="0 0 16 16" fill="none" xmlns="http://www.w3.org/2000/svg">
<path fill-rule="evenodd" clip-rule="evenodd" d="M3.49902 0.75C3.49902 0.335786 3.83481 0 4.24902 0C4.66324 0 4.99902 0.335786 4.99902 0.75V1.74619C5.90043 2.90269 6.79298 3.64943 7.66185 4.37636L7.66186 4.37637L7.66202 4.3765C7.74235 4.4437 7.82247 4.51074 7.90239 4.57792C7.86641 3.88412 7.95748 3.15626 8.32832 2.41459C9.09895 0.873327 10.7941 -0.0445804 12.6222 0.260211C14.408 0.557931 15.9995 1.94012 15.9995 4.25C15.9995 5.52826 15.0449 6.82456 13.5582 6.98368C13.6057 7.15138 13.6551 7.32055 13.7054 7.49234L13.7697 7.71294C13.9734 8.41342 14.182 9.16702 14.2462 9.93787C14.3884 11.6455 13.8461 12.9683 12.7595 13.8361C11.7139 14.6713 10.2696 15.0001 8.74867 15.0001H2.74858C2.33437 15.0001 1.99858 14.6643 1.99858 14.2501C1.99858 13.8359 2.33437 13.5001 2.74858 13.5001H4.12503C3.88696 13.1416 3.69081 12.7393 3.56202 12.3086C3.36903 11.663 3.3289 10.9577 3.51158 10.2456C2.90183 10.2976 2.21618 10.2245 1.48744 9.95272C1.09933 9.80799 0.902045 9.37603 1.04678 8.98793C1.19152 8.59983 1.62347 8.40254 2.01157 8.54728C3.36919 9.05358 4.38822 8.54076 4.70985 8.22885C4.7129 8.22579 4.71595 8.22273 4.71901 8.21967C4.86546 8.07322 5.0574 8 5.24934 8C5.2602 8 5.27107 8.00023 5.28192 8.0007C5.46292 8.00849 5.64163 8.08147 5.77984 8.21967C6.07273 8.51256 6.07273 8.98744 5.77984 9.28033C5.77547 9.28469 5.77107 9.28906 5.76664 9.29342C4.85481 10.2131 4.77465 11.1279 4.99916 11.8789C5.22025 12.6184 5.74441 13.2164 6.19516 13.5001H8.74867C10.0916 13.5001 11.1474 13.204 11.8234 12.6641C12.4583 12.157 12.859 11.3548 12.7514 10.0624C12.7012 9.45917 12.5347 8.83778 12.3294 8.13176L12.2648 7.91072C12.1458 7.50418 12.0189 7.07107 11.9118 6.62105C11.7158 6.49413 11.5474 6.34299 11.4054 6.17977C11.0279 5.74588 10.8504 5.24661 10.7717 4.9319C10.6713 4.53006 10.9156 4.12285 11.3174 4.02239C11.7193 3.92193 12.1265 4.16625 12.227 4.5681C12.2733 4.75338 12.3708 5.00412 12.5371 5.19523C12.6828 5.36272 12.89 5.5 13.2493 5.5C13.9873 5.5 14.4995 4.88528 14.4995 4.25C14.4995 2.78031 13.5489 1.93541 12.3755 1.73979C11.2041 1.54448 10.1493 2.12667 9.66996 3.08541C9.20982 4.00569 9.40066 4.85886 9.68872 6.1467L9.73123 6.33711C9.73488 6.35349 9.73796 6.36986 9.74048 6.38621C10.0885 6.83007 10.4073 7.33584 10.6818 7.93965C10.8532 8.31673 10.6865 8.76137 10.3094 8.93277C9.93229 9.10418 9.48765 8.93744 9.31625 8.56035C8.76301 7.34324 7.99596 6.61934 7.01537 5.79197C6.91235 5.70505 6.80698 5.617 6.6995 5.52721L6.69948 5.52719L6.69915 5.52692C5.88463 4.84639 4.94966 4.06523 4.0074 2.90847C3.67136 3.09655 3.30537 3.39887 2.98449 3.78895C2.57815 4.28293 2.32146 4.8235 2.2622 5.29588C2.37846 5.41805 2.56759 5.5068 2.85345 5.53483C3.24075 5.5728 3.64958 5.47505 3.88479 5.34438C4.24688 5.14322 4.70348 5.27368 4.90464 5.63577C5.1058 5.99786 4.97534 6.45446 4.61326 6.65562C4.09846 6.94161 3.3823 7.09387 2.7071 7.02767C2.02507 6.96081 1.23418 6.64736 0.828203 5.83541L0.749023 5.67705V5.5C0.749023 4.51608 1.2298 3.5609 1.82606 2.83605C2.28586 2.27707 2.87509 1.781 3.49902 1.48315V0.75Z" fill="black"/>
</svg>

<svg xmlns="http://www.w3.org/2000/svg" width="16" height="16" viewBox="0 0 16 16"><path fill-rule="evenodd" d="M3.499.75a.75.75 0 011.5 0v.996C5.9 2.903 6.793 3.65 7.662 4.376l.24.202c-.036-.694.055-1.422.426-2.163C9.1.873 10.794-.045 12.622.26 14.408.558 16 1.94 16 4.25c0 1.278-.954 2.575-2.44 2.734l.146.508.065.22c.203.701.412 1.455.476 2.226.142 1.707-.4 3.03-1.487 3.898C11.714 14.671 10.27 15 8.75 15h-6a.75.75 0 010-1.5h1.376a4.489 4.489 0 01-.563-1.191 3.833 3.833 0 01-.05-2.063 4.636 4.636 0 01-2.025-.293.75.75 0 11.525-1.406c1.357.507 2.376-.006 2.698-.318l.009-.01a.748.748 0 011.06 0 .75.75 0 01-.012 1.074c-.912.92-.992 1.835-.768 2.586.221.74.745 1.337 1.196 1.621H8.75c1.343 0 2.398-.296 3.074-.836.635-.507 1.036-1.31.928-2.602-.05-.603-.216-1.224-.422-1.93l-.064-.221c-.12-.407-.246-.84-.353-1.29a2.404 2.404 0 01-.507-.441 3.063 3.063 0 01-.633-1.248.75.75 0 011.455-.364c.046.185.144.436.31.627.146.168.353.305.712.305.738 0 1.25-.615 1.25-1.25 0-1.47-.95-2.315-2.123-2.51-1.172-.196-2.227.387-2.706 1.345-.46.92-.27 1.774.019 3.062l.042.19a.753.753 0 01.01.05c.348.443.666.949.94 1.553a.75.75 0 11-1.365.62c-.553-1.217-1.32-1.94-2.3-2.768a85.08 85.08 0 00-.317-.265c-.814-.68-1.75-1.462-2.692-2.619a3.74 3.74 0 00-1.023.88c-.406.495-.663 1.036-.722 1.508.116.122.306.21.591.239.388.038.797-.06 1.032-.19a.75.75 0 01.728 1.31c-.515.287-1.23.439-1.906.373-.682-.067-1.473-.38-1.879-1.193L.75 5.677V5.5c0-.984.48-1.94 1.077-2.664.46-.559 1.05-1.055 1.673-1.353V.75z"/></svg>
